X: 98
T: Huil daguer haibuwan
L: 1/8
M: 2/4
K: F
d A c d [I:setbarnb 1]| 
G F/ G/ D C | 
d A c d/ c/ | 
G4 | 
d A c3/ d/ | 
G F/ D/C2 | 
G c F E/ D/ | 
C4 |]

@@@ Tune index: 8972
